src/images/icons/night.svg

<svg xmlns="http://www.w3.org/2000/svg" id="icon-night" viewBox="0 0 32 26">
	<path d="M21.045-3.862a7.645 7.645 0 01-9.086-7.509 7.642 7.642 0 013.871-6.65c.279-.175 1.589-.961 1.677-1.479.069-.4-1.3-1.143-2.147-1.3a14.569 14.569 0 00-2.191-.2 12 12 0 00-12 12 12 12 0 0012 12 11.979 11.979 0 009.321-4.443 2.064 2.064 0 00.562-2.035c-.103-.334-.93-.543-2.007-.384zM13.169 1.5A10.5 10.5 0 012.669-9a10.5 10.5 0 0110.5-10.5 10.561 10.561 0 011.919.176 9.142 9.142 0 00-4.629 7.953 9.148 9.148 0 0010.867 8.983A10.479 10.479 0 0113.169 1.5z" transform="rotate(-9 151.938 1.998)"/>
	<path d="M3.039-5.041L2.273-3.49l-1.712.25a.375.375 0 00-.207.64l1.239 1.207L1.3.312a.375.375 0 00.544.395L3.375-.1l1.532.807A.375.375 0 005.45.312l-.293-1.705L6.4-2.6a.375.375 0 00-.207-.64l-1.716-.25-.766-1.551a.375.375 0 00-.672 0z" transform="translate(18 7)"/>
	<path d="M1.013-1.68l-.255.517-.571.083a.125.125 0 00-.069.213l.413.4L.433.1a.125.125 0 00.181.136l.511-.268.511.268A.125.125 0 001.817.1l-.1-.568.413-.4a.125.125 0 00-.069-.213l-.571-.083-.253-.516a.125.125 0 00-.224 0z" transform="translate(24 13)"/>
	<path d="M2.026-3.361l-.51 1.034-1.142.167a.25.25 0 00-.138.427l.826.8L.866.208a.25.25 0 00.362.263L2.25-.066l1.021.537a.25.25 0 00.363-.263l-.2-1.137.826-.8a.25.25 0 00-.138-.427l-1.138-.171-.51-1.034z" transform="translate(27 9)"/>
</svg>

<svg xmlns="http://www.w3.org/2000/svg"
	xmlns:xlink="http://www.w3.org/1999/xlink" id="icon-night" viewBox="0 0 32 26">
	<path d="M21.045-3.862a7.645,7.645,0,0,1-9.086-7.509,7.642,7.642,0,0,1,3.871-6.65c.279-.175,1.589-.961,1.677-1.479.069-.4-1.3-1.143-2.147-1.3a14.569,14.569,0,0,0-2.191-.2,12,12,0,0,0-12,12,12,12,0,0,0,12,12A11.979,11.979,0,0,0,22.49-1.443a2.064,2.064,0,0,0,.562-2.035C22.949-3.812,22.122-4.021,21.045-3.862ZM13.169,1.5A10.5,10.5,0,0,1,2.669-9a10.5,10.5,0,0,1,10.5-10.5,10.561,10.561,0,0,1,1.919.176,9.142,9.142,0,0,0-4.629,7.953A9.148,9.148,0,0,0,21.326-2.388,10.479,10.479,0,0,1,13.169,1.5Z" transform="translate(1.558 23.793) rotate(-9)"/>
	<path d="M3.039-5.041,2.273-3.49.561-3.24a.375.375,0,0,0-.207.64L1.593-1.393,1.3.312a.375.375,0,0,0,.544.395L3.375-.1,4.907.707A.375.375,0,0,0,5.45.312L5.157-1.393,6.4-2.6a.375.375,0,0,0-.207-.64L4.477-3.49,3.711-5.041A.375.375,0,0,0,3.039-5.041Z" transform="translate(18 7)"/>
	<path d="M1.013-1.68l-.255.517L.187-1.08a.125.125,0,0,0-.069.213l.413.4L.433.1A.125.125,0,0,0,.614.236l.511-.268.511.268A.125.125,0,0,0,1.817.1l-.1-.568.413-.4a.125.125,0,0,0-.069-.213l-.571-.083L1.237-1.68A.125.125,0,0,0,1.013-1.68Z" transform="translate(24 13)"/>
	<path d="M2.026-3.361l-.51,1.034L.374-2.16a.25.25,0,0,0-.138.427l.826.8L.866.208a.25.25,0,0,0,.362.263L2.25-.066,3.271.471A.25.25,0,0,0,3.634.208l-.2-1.137.826-.8a.25.25,0,0,0-.138-.427L2.984-2.327l-.51-1.034A.25.25,0,-3.361Z" transform="translate(27 9)"/>
</svg>
